X:40
T:Nisi Dominus RV 608 - Cum dederit
C:Vivaldi, A.
M:3/4
L:1/8
Q:1/4=52
K:Gmin
|:D2|g4 fg|a2 gf e2|f4 ef|g4 d2|
e4 fe|d4 cd|B2 AG FE|G4:|

